X:24
T:Ballroom Favourite, The
R:barndance
D:John McKenna & Michael Gaffney
Z:id:hn-barndance-24
M:C|
L:1/8
K:D
FG | A2f2 A4 | B2g2 B4 | cBcd edcd | (3efe dB AGFG |
A2f2 A4 | B2g2 B4 | cBcd edcd | (3efe dc d2 :|
|: df | a2ba f2d2 | cdef g4 | gfge c2A2 | defg a3f |
a2ba f2d2 | cdef g4 | gfge cA (3Bcd | (3efe dc d2 :|

